X:1
T:1. Chorale  —  4ths CW, block 135 whole-note
C:Fingering 1·2·3 simultaneously
M:4/4
L:1/4
Q:1/4=72
K:C clef=bass
"C""_8" [C,E,G,]4 | "F""_8" [F,A,C]4 | "B°""_8" [B,DF]4 | "Em""_8" [E,G,B,]4 | "Am""_8" [A,CE]4 | "Dm""_8" [D,F,A,]4 | "G""_8" [G,B,D]4 | "C""_8" [C,E,G,]4 |]

